X:1
T:Title
%%score { 1 | 2 }
L:1/8
M:4/4
K:Bb
V:1 treble nm="Grand Piano"
V:2 bass 
V:1
 z4 z2[Q:1/4=94] [B,D][CE] | [DF][B,D][DF][DB] [Fd][DB][DF][D^F] | GE B>G [DF]2 [B,D][CE] | %3
 [DF][B,D][DF][DB] [Fd][DB] A>B | c6 D[CE] | [DF][B,D][DF][DB] [Fd][DB][DF][D^F] | %6
 GE B>G [DF]2 [B,D][CE] | [DF][DB] [Ge]>[Ge] dB c>c |[M:3/4] [B,DB]6 |[M:1/4] FF | %10
[M:4/4] [B,DB]>[B,DB] [B,DB][B,DB] F2 D2 | [B,DF]2 z2 z2 FF | c>c cc .A2 .F2 | [B,DB]2 z2 z2 FF | %14
 [Fd]>[Fd] [Fd]>c B2 FF |[M:9/8] G<GG/G/- G [=Ec]2- [Ec][EB][EB] |[M:4/4] A>A AA .G2 .A2 | %17
[M:3/4] [DB]2 z2 z2 |] %18
V:2
 z4 z2 [B,,F,][B,,F,] | [B,,B,][B,,F,][B,,B,][B,,B,] [B,,B,][B,,B,][B,,B,][B,,B,] | %2
 [E,B,E][E,G,] [E,G,E]>[E,G,E] [B,,B,]2 [B,,F,][B,,F,] | %3
 [B,,B,][B,,G,][B,,B,][B,,B,] [B,,B,][B,,B,] [F,CE]>[F,B,D] | [F,A,F]6 [B,,F,B,][B,,F,] | %5
 [B,,B,][B,,F,][B,,B,][B,,B,] [B,,B,][B,,B,][B,,B,][B,,B,] | %6
 [E,B,E][E,G,] [E,G,E]>[E,B,E] [B,,B,]2 [B,,F,][B,,F,] | %7
 [B,,B,][B,,B,] [E,B,]>[E,B,] [F,B,F][F,B,D] [F,A,E]>[F,A,E] |[M:3/4] B,,6 |[M:1/4] F,F, | %10
[M:4/4] B,,>B,, B,,B,, F,2 D,2 | B,,2 D,F, B,,2 F,F, | %12
 [F,A,E]>[F,A,E] [F,A,E][F,A,E] .[F,CE]2 .[F,CE]2 | B,,2 D,F, B,,2 F,F, | %14
 [B,,B,]>[B,,B,] [B,,B,]>[F,A,E] [G,B,D]2 [D,B,D][D,B,D] | %15
[M:9/8] [E,B,E]<[E,B,E][E,B,E]/[E,B,E]/- [E,B,E] [C,C]2- [C,C][C,C][C,C] | %16
[M:4/4] [F,CE]>[F,CE] [F,CE][F,CE] .[F,B,E]2 .[F,CE]2 |[M:3/4] [B,,B,]2 z2 z2 |] %18

